assets/img/Vicra logo.svg

<svg xmlns="http://www.w3.org/2000/svg" xmlns:xlink="http://www.w3.org/1999/xlink" width="40" zoomAndPan="magnify" viewBox="0 0 30 30.000001" height="40" preserveAspectRatio="xMidYMid meet" version="1.0"><defs><clipPath id="2ab6153e2e"><path d="M 12 7 L 26.460938 7 L 26.460938 20 L 12 20 Z M 12 7 " clip-rule="nonzero"/></clipPath><clipPath id="4f4f8d6921"><path d="M 3.234375 6.324219 L 15 6.324219 L 15 23 L 3.234375 23 Z M 3.234375 6.324219 " clip-rule="nonzero"/></clipPath></defs><g clip-path="url(#2ab6153e2e)"><path fill="#ffffff" d="M 24.53125 8.015625 C 23.722656 8.105469 22.910156 8.152344 22.09375 8.164062 C 20.507812 8.183594 18.917969 8.0625 17.351562 7.808594 C 16.828125 7.722656 16.648438 7.796875 16.496094 8.117188 C 15.863281 9.449219 15.214844 10.777344 14.570312 12.105469 C 14.546875 12.15625 14.519531 12.207031 14.492188 12.257812 C 14.421875 12.386719 14.269531 12.445312 14.132812 12.390625 C 13.546875 12.160156 12.976562 11.933594 12.40625 11.707031 C 12.339844 11.679688 12.273438 11.75 12.304688 11.8125 C 13.171875 13.601562 14.035156 15.386719 14.933594 17.234375 C 15.011719 17.402344 15.25 17.402344 15.328125 17.234375 C 15.328125 17.234375 15.328125 17.234375 15.332031 17.234375 C 16.324219 15.183594 17.324219 13.132812 18.304688 11.078125 C 18.429688 10.816406 18.574219 10.722656 18.859375 10.734375 C 19.453125 10.753906 20.046875 10.738281 20.640625 10.738281 C 20.9375 10.738281 21.238281 10.738281 21.59375 10.738281 C 21.667969 10.738281 21.71875 10.816406 21.6875 10.886719 C 20.421875 13.496094 19.179688 16.058594 17.941406 18.613281 L 17.570312 19.375 C 17.5 19.519531 17.695312 19.636719 17.789062 19.507812 L 18.289062 18.832031 L 18.90625 18.035156 C 20.226562 16.328125 21.546875 14.621094 22.871094 12.914062 C 23.535156 12.058594 24.199219 11.199219 24.863281 10.339844 C 25.199219 9.910156 25.53125 9.480469 25.863281 9.046875 C 26.109375 8.730469 26.566406 8.308594 26.746094 7.925781 C 26.773438 7.863281 26.734375 7.792969 26.667969 7.785156 C 25.980469 7.699219 25.203125 7.945312 24.53125 8.015625 Z M 24.53125 8.015625 " fill-opacity="1" fill-rule="nonzero"/></g><g clip-path="url(#4f4f8d6921)"><path fill="#ffffff" d="M 8.390625 10.417969 C 8.339844 10.304688 8.417969 10.179688 8.539062 10.179688 L 12.40625 10.179688 C 12.5625 10.179688 12.605469 9.960938 12.457031 9.902344 C 9.484375 8.722656 6.507812 7.546875 3.460938 6.339844 C 3.320312 6.285156 3.1875 6.429688 3.25 6.566406 C 3.75 7.601562 4.183594 8.679688 4.753906 9.675781 C 6.871094 13.371094 10.070312 16.976562 10.886719 21.601562 C 10.988281 22.1875 11.195312 22.054688 11.46875 22.050781 C 12.28125 22.03125 13.042969 22.695312 13.855469 22.695312 C 13.925781 22.695312 13.992188 22.695312 14.070312 22.695312 C 14.195312 22.695312 14.273438 22.566406 14.21875 22.457031 C 12.265625 18.417969 10.34375 14.445312 8.390625 10.417969 Z M 8.390625 10.417969 " fill-opacity="1" fill-rule="nonzero"/></g></svg>

<svg xmlns="http://www.w3.org/2000/svg" width="40" zoomAndPan="magnify" viewBox="0 0 30 30" height="40" preserveAspectRatio="xMidYMid meet" xmlns:v="https://vecta.io/nano"><defs><clipPath id="A"><path d="M12 7h14.461v13H12zm0 0" clip-rule="nonzero"/></clipPath><clipPath id="B"><path d="M3.234 6.324H15V23H3.234zm0 0" clip-rule="nonzero"/></clipPath></defs><g clip-path="url(#A)"><path fill="#fff" d="M24.531 8.016l-2.437.148a27.55 27.55 0 0 1-4.742-.355c-.523-.086-.703-.012-.855.309l-1.926 3.988-.078.152c-.07.129-.223.188-.359.133l-1.727-.684c-.066-.027-.133.043-.102.105l2.629 5.422c.078.168.316.168.395 0l2.977-6.156c.125-.262.27-.355.555-.344l1.781.004h.953c.074 0 .125.078.094.148l-3.746 7.727-.371.762c-.07.145.125.262.219.133l.5-.676.617-.797 3.965-5.121 1.992-2.574 1-1.293c.246-.316.703-.738.883-1.121a.1.1 0 0 0-.078-.141c-.687-.086-1.465.16-2.137.23zm0 0"/></g><g clip-path="url(#B)"><path fill="#fff" d="M8.391 10.418c-.051-.113.027-.238.148-.238h3.867c.156 0 .199-.219.051-.277L3.461 6.34c-.141-.055-.273.09-.211.227l1.504 3.109c2.117 3.695 5.316 7.301 6.133 11.926.102.586.309.453.582.449.813-.02 1.574.645 2.387.645h.215c.125 0 .203-.129.148-.238L8.391 10.418zm0 0"/></g></svg>
